X: 1
T: Scarborough Fair
Q: "Allegro"
M: 3/4
L: 1/4
K: FLyd
|z3|z3|z3|z3|
|D2D|A2A|E>FE|D3-|
|D3|zAc|d2c|ABG|
|A3-|A3-|A3-|Azd|
|d2d|c2A|AGF|E3-|
|E3|D2A|G2F|EDC|
|D3-|D3-|D3|z3|
|
